src/svgs/stats.svg

<svg xmlns="http://www.w3.org/2000/svg" viewBox="0 0 24 24" width="512" height="512"><path d="M21.618 2.05H2.382A1.385 1.385 0 001 3.438v13.174A1.385 1.385 0 002.382 18H10v2H8v2h8v-2h-2v-2h7.618A1.385 1.385 0 0023 16.612V3.438a1.385 1.385 0 00-1.382-1.388zM21 14.879H3V3.982h18zM7 11H5V6h2zm4 0H9V8h2zm8 2H5v-1h14zm-4-2h-2V7h2zm4 0h-2V9h2z"/></svg>

<svg xmlns="http://www.w3.org/2000/svg" viewBox="0 0 24 24"><path d="M21.618,2.05H2.382A1.385,1.385,0,0,0,1,3.438V16.612A1.385,1.385,0,0,0,2.382,18H10v2H8v2h8V20H14V18h7.618A1.385,1.385,0,0,0,23,16.612V3.438A1.385,1.385,0,0,0,21.618,2.05ZM21,14.879H3V3.982H21ZM7,11H5V6H7Zm4,0H9V8h2Zm8,2H5V12H19Zm-4-2H13V7h2Zm4,0H17V9h2Z"/></svg>
